icons/browser-16.svg

<svg width="16" height="16" viewBox="0 0 16 16" fill="none" xmlns="http://www.w3.org/2000/svg">
<path fill-rule="evenodd" clip-rule="evenodd" d="M0 2.75C0 1.7835 0.783502 1 1.75 1H14.25C15.2165 1 16 1.7835 16 2.75V13.25C16 14.2165 15.2165 15 14.25 15H1.75C0.783501 15 0 14.2165 0 13.25V2.75ZM1.75 2.5C1.61193 2.5 1.5 2.61193 1.5 2.75V4.5H3.5V2.5H1.75ZM5 2.5V4.5H7V2.5H5ZM8.5 2.5V4.5H14.5V2.75C14.5 2.61193 14.3881 2.5 14.25 2.5H8.5ZM14.5 6H1.5V13.25C1.5 13.3881 1.61193 13.5 1.75 13.5H14.25C14.3881 13.5 14.5 13.3881 14.5 13.25V6Z" fill="black"/>
</svg>

<svg xmlns="http://www.w3.org/2000/svg" width="16" height="16" viewBox="0 0 16 16"><path fill-rule="evenodd" d="M0 2.75C0 1.784.784 1 1.75 1h12.5c.966 0 1.75.784 1.75 1.75v10.5A1.75 1.75 0 0114.25 15H1.75A1.75 1.75 0 010 13.25V2.75zm1.75-.25a.25.25 0 00-.25.25V4.5h2v-2H1.75zM5 2.5v2h2v-2H5zm3.5 0v2h6V2.75a.25.25 0 00-.25-.25H8.5zm6 3.5h-13v7.25c0 .138.112.25.25.25h12.5a.25.25 0 00.25-.25V6z"/></svg>
